X:1
T:Sinner, Heed the Voice of Mercy
T:Sinner, Heed the Voice of Mercy
T:Arthur M. Phillips
T:J. S. Kimbrough, 1907
T:Public Domain Courtesy of the Cyber Hymnal™
T:Public Domain Courtesy of the Cyber Hymnal™
C:Arthur M. Phillips
Z:Public Domain
Z:Courtesy of the Cyber Hymnal™
%%score ( 1 2 ) ( 3 4 )
L:1/8
Q:1/4=100
M:4/4
K:F
V:1 treble 
V:2 treble 
V:3 bass 
V:4 bass 
V:1
 F>[FG] | [FA]3 [FB] [FA]2 [EG]2 | [EG]2 F4 [FA]>[FB] | [Fc]3 [Fd] [Fc]2 [FA]2 | [EG]6 [Ec]>[GB] | %5
w: 1.~Sin- ner,|heed the voice of|mer- cy, As the|days are go- ing|by; While the|
w: 2.~Sweet the|Gos- pel tones are|fall- ing, And the|Sav- ior wait- ing|stands; Hear the|
w: 3.~Stream- ing|down from Cal- v’ry’s|mount- ain Flows sal-|va- tion full and|free; In this|
 [FA]3 [Cc] [DF]2 [FA]2 | [Fc]2 [FB]4 [Fd]>[Fd] | [Fc]3 F [FA]2 [EG]2 | F6 ||"^Refrain" F>G | %10
w: lamp of life is|burn- ing, To the|Lord for ref- uge|fly.|Come to|
w: voice of Je- sus|call- ing, See His|wound- ed side and|hands.||
w: heal- ing, cleans- ing|fount- ain, Sin- ner,|there is life for|thee.||
 (z2 [FA]>)G F>A x2 | z A>G x8 | (z2 [DF]>)F G>A x2 | z A>B x8 | (z G>)A x8 | (z2 [Fd]>)[Fd] x6 | %16
w: * Christ, O come|* to|* Him; He will|* par-|* don|* ev-|
w: ||||||
w: ||||||
 [Fc]3 F [FA]2 [CG]2 | [CF]6 |] %18
w: ery sin; Mer- cy’s|voice|
w: ||
w: ||
V:2
 F3/2 x/ | x8 | x2 F4 x2 | x8 | x8 | x8 | x8 | x3 F x4 | F6 || x2 | A4- F3/2 F/ x2 | (c6 FE>E F2) | %12
 F4- D3/2 D/ x2 | (G6 EE>E E2) | (c6 FE>E F2) | (B6 D>D D2) | x3 F x4 | x6 |] %18
V:3
 [F,A,]>[F,B,] | [F,C]3 [F,D] [F,C]2 [C,B,]2 | [C,B,]2 [F,A,]4 F,>[F,G,] | %3
w: ~ ~|~ ~ ~ ~|~ ~ ~ ~|
 [F,A,]3 [F,B,] [F,A,]2 [F,C]2 | [C,C]6 [C,G,]>[C,C] | [F,C]3 [E,G,] [D,A,]2 [C,_E]2 | %6
w: ~ ~ ~ ~|~ ~ ~|~ ~ ~ ~|
 [B,,D]2 [B,,D]4 [B,,B,]>[B,,B,] | [C,A,]3 [D,A,] [C,C]2 [C,B,]2 | [F,,F,A,]6 || z2 | %10
w: ~ ~ ~ ~|~ ~ ~ ~|~||
 z2 [F,C]>[F,C] [F,C]3/2 z/ z2 | z [F,A,] [C,G,]>[C,G,] [F,A,]2 z2 x3 | %12
w: Come to Christ,|O come to Him;|
 z2 [D,A,]>[D,A,] [D,A,]3/2 z/ z2 | z [C,C] [C,C]>[C,C] [C,C]2 z2 x3 | %14
w: He will cleanse|your ev- ery sin;|
 z [F,A,] [C,G,]>[C,G,] [F,A,]2 z2 x3 | z2 [B,,F,]>[B,,F,] [B,,F,]2 [B,,B,]>[B,,B,] x2 | %16
w: calls to- day, *||
 [C,A,]3 [D,A,] [C,C]2 [C,B,]2 | [F,,F,A,]6 |] %18
w: ||
V:4
 x2 | x8 | x6 F,3/2 x/ | x8 | x8 | x8 | x8 | x8 | x6 || x2 | x8 | x11 | x8 | x11 | x11 | x10 | x8 | %17
 x6 |] %18

